!!!COM: Palestrina, Giovanni Perluigi da
!!!OPR: Missa O magnum mysterium
!!!OMD: Sanctus
!!!OTL: Hosanna
**kern	**kern	**kern	**kern	**kern
*Ibass	*Itenor	*Icalto	*Icalto	*Icant
!Bassus	!Tenor	!Altus 2	!Altus 1	!Cantus
*clefF4	*clefGv2	*clefG2	*clefG2	*clefG2
*k[]	*k[]	*k[]	*k[]	*k[]
*E:phr	*E:phr	*E:phr	*E:phr	*E:phr
*M3/2	*M3/2	*M3/2	*M3/2	*M3/2
=72	=72	=72	=72	=72
1A	1r	1e	1c	1r
2G	2r	2e	2B	2r
=73	=73	=73	=73	=73
1F	1r	1d	1A	1r
2E	2r	2c	2G	2r
=74	=74	=74	=74	=74
1F	1r	1c	1A	1r
2D	2r	2B	2F	2r
=75	=75	=75	=75	=75
4C	1e	1c	2G	1cc
4D	.	.	.	.
4E	.	.	2.g	.
4F	.	.	.	.
2G	2d	2r	.	2b
.	.	.	4f	.
=76	=76	=76	=76	=76
2A	1c	1r	2e	1a
2F	.	.	2f	.
2G	2B	2r	2d	2g
=77	=77	=77	=77	=77
1C	1c	1r	1e	1g
2D	2A	2r	2d	2f#
=78	=78	=78	=78	=78
2.E	2G	2r	2.B	1g
.	2E	2g	.	.
4C	.	.	4c	.
2D	2F	2f	2A	2dd
=79	=79	=79	=79	=79
1C	1G	1e	2c	2g
.	.	.	2g	2cc
2r	2r	2d	2f	2b
=80	=80	=80	=80	=80
1r	1c	4c	1e	1cc
.	.	4d	.	.
.	.	4e	.	.
.	.	4f	.	.
2r	2B	2g	2d	2r
=81	=81	=81	=81	=81
1r	1A	2f	4c	1cc
.	.	.	4d	.
.	.	2.e	4e	.
.	.	.	4f	.
2r	2G	.	2g	2b
.	.	4d	.	.
=82	=82	=82	=82	=82
1r	2.A	2.c	2f	1a
.	.	.	2.e	.
.	4G	8B	.	.
.	.	8A	.	.
2r	2E	2B	.	2g#
.	.	.	4d	.
=83	=83	=83	=83	=83
1r	2.F	2A	1c	1a
.	.	2c	.	.
.	4E	.	.	.
2r	2D	2d	2B	2f
=84	=84	=84	=84	=84
1C	2C	1.G	2c	2e
.	2r	.	2e	1g
2BB	2r	.	2d	.
=85	=85	=85	=85	=85
1AA	1c	1A	2c	2f
.	.	.	2r	1e
2GG#	2B	2B	2r	.
=86	=86	=86	=86	=86
4AA	1A	2c	2r	2f
4BB	.	.	.	.
4C	.	2r	2c	1e
4D	.	.	.	.
2E	2G#	2r	2B	.
=87	=87	=87	=87	=87
2F	2A	1r	1A	2d
1E	2.B	.	.	1e
.	.	2r	2G#	.
.	4c	.	.	.
=88	=88	=88	=88	=88
1D	2d	1f	2A	1r
.	1A	.	2d	.
2C#	.	2e	2e	2r
=89	=89	=89	=89	=89
2D	2A	1d	2f	1r
2GG	2B-	.	2g	.
2AA	2A	2c#	2e	2r
=90	=90	=90	=90	=90
1D	2A	1d	1f	1r
.	2F	.	.	.
2E	2G	2B	2e	2r
=91	=91	=91	=91	=91
2AA	1A	2c	1e	1cc
2A	.	2A	.	.
2G	2r	2B	2r	2b
=92	=92	=92	=92	=92
2F	1r	2c	1f	1a
2D	.	2d	.	.
2E	2r	2B	2e	2g#
=93	=93	=93	=93	=93
2.F	1r	2.A	2d	1a
.	.	.	2c	.
4E	.	4G	.	.
2D	2r	4A	2d	2f
.	.	4B	.	.
=94	=94	=94	=94	=94
1C	1c	2c	1e	4e
.	.	.	.	4f
.	.	2G	.	4g
.	.	.	.	4a
2r	2B	2g	2d	4b
.	.	.	.	4g
=95	=95	=95	=95	=95
1r	1A	2f	2.c	4a
.	.	.	.	4b
.	.	2.e	.	2cc
.	.	.	4d	.
2r	2G#	.	2e	2b
.	.	4d	.	.
=96	=96	=96	=96	=96
1r	2A	2c	2f	1a
.	1E	1B	1e	.
2r	.	.	.	2g#
=97	=97	=97	=97	=97
1F	2A	2A	2c	2a
.	2A	2r	2d	2f
2E	2B	2r	2e	2g
=98	=98	=98	=98	=98
1D	2d	1f	[1.A	1a
.	2D	.	.	.
2C#	2E	2e	.	2a
=99	=99	=99	=99	=99
2.D	2.F	1d	1.A]	1f
4E	4G	.	.	.
4F	2A	2c	.	[2f
4G	.	.	.	.
=100	=100	=100	=100	=100
1A	2D	2d	1r	2f]
.	1E	1B	.	1e
2G#	.	.	2r	.
=101	=101	=101	=101	=101
2A	1c	2A	2r	2.e
2r	.	2e	1g	.
.	.	.	.	4f
2r	2B	2d	.	2g
=102	=102	=102	=102	=102
1r	1A	1c	2f	4a
.	.	.	.	4b
.	.	.	1e	4cc
.	.	.	.	4a
2r	2G#	2B	.	2b
=103	=103	=103	=103	=103
1r	1A	1c	2f	1a
.	.	.	2e	.
2r	2F	2A	2d	2r
=104	=104	=104	=104	=104
1C	1E	2G	2.e	1cc
.	.	2g	.	.
.	.	.	4c	.
2G	2r	2g	2d	2b
=105	=105	=105	=105	=105
1A	1c	1e	2c	1a
.	.	.	2A	.
2E	2B	2e	2r	2g#
=106	=106	=106	=106	=106
2F	1A	2c	2r	2a
2D	.	2d	2r	2.f
2E	2G#	2B	2B	.
.	.	.	.	4e
=107	=107	=107	=107	=107
2AA	1A	1A	2c	1e
1D	.	.	1A	.
.	2F	2r	.	2d
=108	=108	=108	=108	=108
1AA	1.E	1c	1A	2e
.	.	.	.	2a
2E	.	2B	2G#	2b
=109	=109	=109	=109	=109
2AA	1c	1A	2A	2cc
2AA	.	.	1e	2a
2E	2B	2G#	.	2b
=110	=110	=110	=110	=110
2AA	1.A	2A	1e	2cc
1AA	.	1c	.	1a
.	.	.	2e	.
=111	=111	=111	=111	=111
1.E	1.G#	1.B	1.e	1.b
=112	=112	=112	=112	=112
[1.E	[1.G#	[1.B	[1.e	[1.b
=113	=113	=113	=113	=113
1.E]	1.G#]	1.B]	1.e]	1.b]
==	==	==	==	==
*-	*-	*-	*-	*-
!!!CDT: 1525/^1526/-1594/2/2
!!!OCY: Italia
!!!AGN: Mass (Parody)
!!!AST: renaissance, vocal
!!!ASW: Motet 1569 (Palestrina)
!!!PWK: Masses, Book 4
!!!RNB: Cadence finals: A,C,G,F
!!!YOR: Le Opere Complete, v. 10, p. 150
!!!YOO: Rome, Italy: Fratelli Scalera
!!!END: 1992//
!!!EED: John Miller
!!!YEC: Copyright 2000, John Miller
!!!YEN: United States of America
!!!YEM: Rights to all derivative electronic formats reserved.
!!!YEM: Refer to licensing agreement for further details.
!!!YEM: This file must be accompanied by the licensing agreement.
!!!YEM: A copy of the licensing agreement may be found at http://www.music-cog.ohio-state.edu/HumdrumDatabases/Palestrina/license.txt
!!!EMD: converted to Humdrum by Bret Aarden
